icon-svg/rooms-bathroom.svg

<svg xmlns="http://www.w3.org/2000/svg" fill="#44739e" viewBox="0 0 24 24"><path d="M26.686 17H26V5.141C26 2.306 23.695 0 20.86 0c-2.441 0-4.481 1.714-5.002 4h-1.851C12.899 4 12 4.898 12 6.007c0 .548.446.993.994.993h7.013c.548 0 .993-.445.993-.993C21 4.898 20.102 4 18.994 4h-1.052c.458-1.168 1.59-2 2.918-2C22.591 2 24 3.409 24 5.141V17H5.315C4.589 17 4 17.589 4 18.314c0 .726.589 1.315 1.315 1.315H6v2.228c0 2.816 1.633 5.244 4 6.407V30c0 1.104.896 2 2 2 1.105 0 2-.896 2-2v-1h4.858c.048 0 .095-.006.142-.007V30c0 1.104.896 2 2 2 1.105 0 2-.896 2-2v-2.331c1.814-1.296 3-3.413 3-5.812v-2.228h.686c.726 0 1.314-.589 1.314-1.315 0-.725-.588-1.314-1.314-1.314"/></svg>

<?xml version="1.0" encoding="UTF-8"?>
<svg width="32px" height="32px" viewBox="0 0 32 32" fill="#44739e" version="1.1" xmlns="http://www.w3.org/2000/svg" xmlns:xlink="http://www.w3.org/1999/xlink">
            <path d="M26.686,17 L26,17 L26,5.141 C26,2.306 23.695,0 20.86,0 C18.419,0 16.379,1.714 15.858,4 L14.007,4 C12.899,4 12,4.898 12,6.007 C12,6.555 12.446,7 12.994,7 L20.007,7 C20.555,7 21,6.555 21,6.007 C21,4.898 20.102,4 18.994,4 L17.942,4 C18.4,2.832 19.532,2 20.86,2 C22.591,2 24,3.409 24,5.141 L24,17 L5.315,17 C4.589,17 4,17.589 4,18.314 C4,19.04 4.589,19.629 5.315,19.629 L6,19.629 L6,21.857 C6,24.673 7.633,27.101 10,28.264 L10,30 C10,31.104 10.896,32 12,32 C13.105,32 14,31.104 14,30 L14,29 L18.858,29 C18.906,29 18.953,28.994 19,28.993 L19,30 C19,31.104 19.896,32 21,32 C22.105,32 23,31.104 23,30 L23,27.669 C24.814,26.373 26,24.256 26,21.857 L26,19.629 L26.686,19.629 C27.412,19.629 28,19.04 28,18.314 C28,17.589 27.412,17 26.686,17"></path>
</svg>
